X:407
T:Alborada Cordobelas
O:Galicia (Spain)
Z:Covertido de Midi a abc por Antonio-Nil
C:D. Roxelio de Leonardo Bouza.
N:http://www.arrakis.es/~jpresedo/
M: 4/4
L: 1/8
Q:1/4=100
K:D % 2 sharps
b/2a3-a/2- [d'/2-a/2]d'c'/2 b/2a/2b/2c'/2|a/2b/2a/2g/2 f3-f/2e/2 f/2g/2b/2g/2|a/2b/2a/2g/2 d/2f/2b/2a/2 g/2a/2g/2f/2 e/2d/2c/2e/2|d6- df/2g/2|
a2- a/2f/2g/2a/2 b2- b/2g/2a/2b/2|c'2- c'/2a/2b/2c'/2 d'c'/2b/2 ad/2f/2|a/2b/2a/2g/2 a/2f/2g/2a/2 b/2c'/2b/2a/2 b/2g/2b/2d'/2|c'b/2c'/2 d'/2c'/2b/2c'/2 a3f/2a/2|
d'/2c'/2b/2c'/2 a/2b/2=c'/2a/2 b3g/2a/2|^c'/2b/2a/2b/2 g/2a/2^a/2g/2 =a3f/2a/2|g3/2^a/2 g/2f/2g/2=a<fg/2 a/2b/2d'/2c'/2|a/2b/2g/2a/2 f/2g/2e/2f/2 d4|
c3/2d/2 e/2g/2e/2c<de/2 f/2a/2f/2d/2|e3/2f/2 g/2a/2b/2g/2 ab/2a/2 f/2a/2f/2d/2|c3/2d/2 e/2g/2e/2c<de/2 f/2a/2f/2d/2|c/2d/2e/2f/2 g/2a/2b/2c'/2 a2- a/2d/2f/2a/2|
d'/2c'/2=c'/2^a/2 =a=c'/2a/2 ^a2 g/2e/2=f/2g/2|=c'/2b/2^a/2=a/2 g^a/2g/2 =a2- a/2^f/2b/2a/2|g3/2e/2 g/2b/2g/2a<fg/2 a/2b/2d'/2^c'/2|a/2b/2g/2a/2 f/2g/2e/2f/2 d2- d/2a/2f/2d/2|
c3/2d/2 e/2g/2e/2c<de/2 f/2a/2f/2d/2|e3/2f/2 g/2a/2b/2g/2 ab/2a/2 f/2a/2f/2d/2|c3/2d/2 e/2g/2e/2c<de/2 f/2a/2f/2d/2|c/2d/2e/2f/2 g/2a/2b/2c'/2 a2- a/2d/2f/2a/2|
d'/2c'/2=c'/2^a/2 =a=c'/2a/2 ^a2 g/2e/2=f/2g/2|=c'/2b/2^a/2=a/2 g^a/2g/2 =a2- a/2^f/2b/2a/2|g3/2e/2 g/2b/2g/2a<fg/2 a/2b/2d'/2^c'/2|a/2b/2g/2a/2 f/2g/2e/2f/2 dz =fd/2e/2|
c3/2d/2 =fg/2a/2 =fd a=f/2g/2|e3/2g/2 ^ag/2^a/2 =a2 g/2a/2g/2e/2|c3/2d/2 e/2=f/2g/2a/2 =fd e/2=f/2g/2^a/2|=a3/2g/2 e/2d/2c/2e/2 d2 d'/2c'/2=c'/2^a/2|
=a2 g/2a/2^a/2g/2 =a2 d/2c/2d/2e/2|=f3/2g/2 a/2g/2=f/2g/2 e2 c/2d/2e/2=f/2|g3/2a/2 ^ag/2^a/2 =ad =f/2a/2g/2=f/2|e3/2d/2 c/2d/2e/2c/2 dz =fd/2e/2|
c3/2d/2 =fg/2a/2 =fd a=f/2g/2|e3/2g/2 ^ag/2^a/2 =a2 g/2a/2g/2e/2|c3/2d/2 e/2=f/2g/2a/2 =fd e/2=f/2g/2^a/2|=a3/2g/2 e/2d/2c/2e/2 d2- d/2^f/2e/2d/2|
c/2d<eg/2e/2c/2 d/2e<fa/2f/2d/2|e/2f<gb/2g/2e/2 f/2g<af/2e/2d/2|c/2d<eg/2e/2c/2 d/2e<fa/2f/2d/2|c/2d/2e/2f/2 g/2a/2b/2^c'/2 a2- a/2d/2f/2a/2|
d'/2c'/2b/2c'/2 a/2b/2c'/2a<bg/2 e/2c/2e/2g/2|b/2a/2b/2c'/2 d'/2c'/2b/2c'<af/2 d/2f/2b/2a/2|g3/2e/2 g/2b/2g/2a<fg/2 a/2b/2d'/2c'/2|a/2b/2g/2a/2 f/2g/2e/2f/2 d2- d/2f/2e/2d/2|
c/2d<eg/2e/2c/2 d/2e<fa/2f/2d/2|e/2f<gb/2g/2e/2 f/2g<af/2e/2d/2|c/2d<eg/2e/2c/2 d/2e<fa/2f/2d/2|c/2d/2e/2f/2 g/2a/2b/2c'/2 a2- a/2d/2f/2a/2|
d'/2c'/2b/2c'/2 a/2b/2c'/2a<bg/2 e/2c/2e/2g/2|b/2a/2b/2c'/2 d'/2c'/2b/2c'<af/2 d/2f/2b/2a/2|g3/2e/2 g/2b/2g/2a<fg/2 a/2b/2d'/2c'/2|a/2b/2g/2a/2 f/2g/2e/2f/2 d4|
d2- d/2e/2f/2g/2 a4-|a2- a/2g/2f/2e/2 f4-|f2- f/2d/2e/2f<ga/2 b/2c'/2b/2a/2|g/2f/2e/2d/2 c/2d/2e/2f/2 d4-|
d3-d/2a/2 d4-|d3-d/2a/2 d4-|d3-d/2a<de/2 f/2g/2a/2b/2|g/2a/2g/2f/2 e/2d/2c/2e/2 d2 


